X:366
T:
R:polska
S:Efter »Florsen» i Burs.
O:Gotland, Burs
M:3/4
L:1/16
K:G
dBGB cAFA G4|gdBd dcAc c2B2|dBGB cAFA G4|gdBd dcAc c2B2|Bdgf efed cBAG|
cAFA G4 G,4::Lg4 g2g2 bgbg|agab abc'a a2b2|a3gg2g2 bgbg|agab c'ac'a a2b2| % rättelse i originalet
g2fe d2Bd c2Ac|B2GB A2FA G3D|GABc defg gfed|a2a2g2g2 f2ed|
g2fe d2Bd c2Ac|B2GB A2FA G4|GABc defa gece|dBcA A2G2 G4:|

